src/components/sections/images/img_icon_black_900_32x32.svg

<svg width="32" height="32" viewBox="0 0 32 32" fill="none" xmlns="http://www.w3.org/2000/svg">
<path fill-rule="evenodd" clip-rule="evenodd" d="M13.4448 6.56526C10.0312 4.85844 6.11958 4.42905 2.41696 5.35471C1.77991 5.51397 1.33301 6.08636 1.33301 6.74301V25.2094C1.33301 26.1398 2.20741 26.8225 3.11005 26.5968C6.16521 25.833 9.39282 26.1873 12.2095 27.5957L15.3438 29.1628C15.7567 29.3693 16.2427 29.3693 16.6556 29.1628L19.7898 27.5957C22.6065 26.1873 25.8341 25.833 28.8893 26.5968C29.792 26.8225 30.6663 26.1398 30.6663 25.2094V6.74301C30.6663 6.08636 30.2194 5.51397 29.5824 5.35471C25.8798 4.42905 21.9682 4.85844 18.5545 6.56526L15.9997 7.84269L13.4448 6.56526ZM3.99967 23.7054V7.74317C6.80046 7.25326 9.69416 7.67135 12.2522 8.9504L14.6663 10.1574V25.8427L13.4021 25.2106C10.4851 23.7521 7.20151 23.2339 3.99967 23.7054ZM17.333 25.8427L18.5972 25.2106C21.5143 23.7521 24.7978 23.2339 27.9997 23.7054V7.74317C25.1989 7.25326 22.3052 7.67135 19.7471 8.9504L17.333 10.1574V25.8427Z" fill="black"/>
</svg>

<svg width="32" height="32" fill="none" xmlns="http://www.w3.org/2000/svg"><path fill-rule="evenodd" clip-rule="evenodd" d="M13.445 6.565a15.988 15.988 0 0 0-11.028-1.21 1.431 1.431 0 0 0-1.084 1.388v18.466c0 .93.874 1.614 1.777 1.388a13.192 13.192 0 0 1 9.1.999l3.134 1.567c.413.206.899.206 1.312 0l3.134-1.567a13.192 13.192 0 0 1 9.1-1 1.43 1.43 0 0 0 1.776-1.387V6.743c0-.657-.447-1.229-1.084-1.388a15.988 15.988 0 0 0-11.027 1.21L16 7.843l-2.555-1.278zM4 23.705V7.743c2.8-.49 5.694-.072 8.252 1.207l2.414 1.207v15.686l-1.264-.632A15.859 15.859 0 0 0 4 23.705zm13.333 2.138 1.264-.632A15.86 15.86 0 0 1 28 23.705V7.743c-2.801-.49-5.695-.072-8.253 1.207l-2.414 1.207v15.686z" fill="#000"/></svg>
